;FLAVOR:Marlin
;TIME:893
;Filament used: 0.247346m
;Layer height: 0.28
;MINX:96.748
;MINY:96.724
;MINZ:0.28
;MAXX:123.26
;MAXY:123.21
;MAXZ:59.92
;POSTPROCESSED
;ChangeAtZ instances: 1
;Generated with Cura_SteamEngine 4.4.1
M82 ;absolute extrusion mode
M201 X500.00 Y500.00 Z100.00 E5000.00 ;Setup machine max acceleration
M203 X500.00 Y500.00 Z10.00 E50.00 ;Setup machine max feedrate
M204 P500.00 R1000.00 T500.00 ;Setup Print/Retract/Travel acceleration
M205 X8.00 Y8.00 Z0.40 E5.00 ;Setup Jerk
M220 S100 ;Reset Feedrate
M221 S100 ;Reset Flowrate
;*** Start Preheating ***
M140 S60 ; start preheating the bed
M104 S205 ﻿T0 ; start preheating hotend
G28 ; home
M420 S1 Z10 ;
M190 S60 ; heat to Cura Bed setting
M109 S205 ﻿T0 ; heat to Cura Hotend
;*** End Preheating ***
G92 E0 ;Reset Extruder
G1 Z2.0 F3000 ;Move Z Axis up
G1 X10.1 Y20 Z0.28 F5000.0 ;Move to start position
G1 X10.1 Y200.0 Z0.28 F1500.0 E15 ;Draw the first line
G1 X10.4 Y200.0 Z0.28 F5000.0 ;Move to side a little
G1 X10.4 Y20 Z0.28 F1500.0 E30 ;Draw the second line
G92 E0 ;Reset Extruder
G1 Z2.0 F3000 ;Move Z Axis up
G90 ;
G92 E0
G92 E0
G1 F1500 E-6
;LAYER_COUNT:214
;LAYER:0
M106 S255
G0 F7500 X100.473 Y100.748 Z0.28
;TYPE:SKIRT
G1 F1500 E0
G1 X101.156 Y100.08 E0.04449
G1 X101.72 Y99.604 E0.07885
G1 X101.933 Y99.436 E0.09148
G1 X102.707 Y98.877 E0.13594
G1 X103.697 Y98.292 E0.18949
G1 X103.981 Y98.143 E0.20442
G1 X104.844 Y97.735 E0.24887
G1 X105.728 Y97.405 E0.29281
G1 X106.021 Y97.309 E0.30716
G1 X106.939 Y97.05 E0.35158
G1 X107.877 Y96.868 E0.39607
G1 X109.182 Y96.749 E0.45709
G1 X109.74 Y96.73 E0.48309
G1 X110.297 Y96.724 E0.50902
G1 X110.499 Y96.727 E0.51843
G1 X111.453 Y96.781 E0.56292
G1 X112.398 Y96.915 E0.60737
G1 X113.112 Y97.071 E0.6414
G1 X113.41 Y97.146 E0.65571
G1 X114.326 Y97.417 E0.70019
G1 X115.045 Y97.691 E0.73602
G1 X115.252 Y97.778 E0.74647
G1 X116.116 Y98.185 E0.79094
G1 X117.266 Y98.875 E0.85339
G1 X117.648 Y99.136 E0.87493
G1 X118.413 Y99.707 E0.91938
G1 X119.128 Y100.341 E0.96388
G1 X119.787 Y101.031 E1.00831
G1 X120.119 Y101.427 E1.03237
G1 X120.539 Y101.952 E1.06368
G1 X121.104 Y102.722 E1.10815
G1 X121.602 Y103.537 E1.15262
G1 X122.057 Y104.45 E1.20012
G1 X122.191 Y104.752 E1.21551
G1 X122.542 Y105.641 E1.26001
G1 X122.816 Y106.554 E1.3044
G1 X122.874 Y106.781 E1.31531
G1 X123.14 Y108.183 E1.38176
G1 X123.17 Y108.422 E1.39297
G1 X123.258 Y109.704 E1.45281
G1 X123.26 Y109.869 E1.46049
G1 X123.232 Y110.823 E1.50493
G1 X123.124 Y111.772 E1.54941
G1 X123.012 Y112.375 E1.57797
G1 X122.933 Y112.747 E1.59568
G1 X122.874 Y113.01 E1.60823
G1 X122.795 Y113.343 E1.62416
G1 X122.536 Y114.262 E1.66862
G1 X122.201 Y115.156 E1.71308
G1 X121.707 Y116.177 E1.76589
G1 X121.589 Y116.393 E1.77735
G1 X121.097 Y117.211 E1.8218
G1 X120.719 Y117.749 E1.85242
G1 X120.548 Y117.978 E1.86573
G1 X119.946 Y118.718 E1.91014
G1 X119.46 Y119.233 E1.94312
G1 X119.199 Y119.493 E1.96027
G1 X118.494 Y120.138 E2.00477
G1 X117.739 Y120.722 E2.04921
G1 X116.937 Y121.241 E2.09369
G1 X116.281 Y121.599 E2.12849
G1 X115.733 Y121.875 E2.15706
G1 X114.747 Y122.314 E2.20732
G1 X114.547 Y122.392 E2.21732
G1 X113.644 Y122.701 E2.26176
G1 X112.718 Y122.934 E2.30622
G1 X111.619 Y123.106 E2.35802
G1 X111.227 Y123.148 E2.37637
G1 X110.275 Y123.21 E2.4208
G1 X109.272 Y123.189 E2.46751
G1 X109.011 Y123.172 E2.47969
G1 X107.755 Y123.02 E2.5386
G1 X107.547 Y122.983 E2.54844
G1 X106.615 Y122.776 E2.59289
G1 X105.704 Y122.493 E2.63731
G1 X104.774 Y122.113 E2.68409
G1 X104.392 Y121.937 E2.70368
G1 X104.049 Y121.772 E2.7214
G1 X103.77 Y121.632 E2.73594
G1 X102.935 Y121.169 E2.7804
G1 X102.143 Y120.637 E2.82482
G1 X101.479 Y120.112 E2.86424
G1 X101.294 Y119.954 E2.87557
G1 X100.595 Y119.304 E2.92001
G1 X100.175 Y118.856 E2.94861
G1 X100.008 Y118.668 E2.96032
G1 X99.142 Y117.563 E3.02569
G1 X99.027 Y117.396 E3.03513
G1 X98.32 Y116.225 E3.09882
G1 X98.202 Y116 E3.11065
G1 X97.795 Y115.136 E3.15513
G1 X97.461 Y114.242 E3.19957
G1 X97.201 Y113.315 E3.2444
G1 X97.094 Y112.86 E3.26616
G1 X97.041 Y112.622 E3.27751
G1 X96.991 Y112.387 E3.2887
G1 X96.831 Y111.446 E3.33315
G1 X96.751 Y110.495 E3.37759
G1 X96.748 Y109.619 E3.41838
G1 X96.757 Y109.36 E3.43044
G1 X96.83 Y108.408 E3.4749
G1 X96.92 Y107.793 E3.50385
G1 X96.963 Y107.547 E3.51547
G1 X97.167 Y106.614 E3.55994
G1 X97.555 Y105.413 E3.61871
G1 X97.716 Y104.995 E3.63957
G1 X98.096 Y104.119 E3.68403
G1 X98.548 Y103.278 E3.72849
G1 X99.069 Y102.478 E3.77295
G1 X99.423 Y102.007 E3.80038
G1 X99.849 Y101.47 E3.8323
G1 X100.101 Y101.179 E3.85023
G0 F1350 X100.473 Y100.748
G0 F7500 X100.776 Y101.009
G1 F1500 X101.448 Y100.355 E3.89389
G1 X101.968 Y99.918 E3.92552
G1 X102.181 Y99.75 E3.93815
G1 X102.941 Y99.201 E3.98181
G1 X103.883 Y98.646 E4.03272
G1 X104.167 Y98.497 E4.04765
G1 X105.015 Y98.097 E4.09131
G1 X105.852 Y97.785 E4.1329
G1 X106.145 Y97.689 E4.14726
G1 X107.048 Y97.435 E4.19094
G1 X107.969 Y97.259 E4.2346
G1 X109.196 Y97.148 E4.29197
G1 X109.754 Y97.129 E4.31797
G1 X110.291 Y97.124 E4.34297
G1 X110.493 Y97.127 E4.35238
G1 X111.43 Y97.181 E4.39608
G1 X112.358 Y97.315 E4.43974
G1 X113.015 Y97.459 E4.47106
G1 X113.313 Y97.534 E4.48537
G1 X114.212 Y97.801 E4.52904
G1 X114.89 Y98.06 E4.56283
G1 X115.097 Y98.147 E4.57329
G1 X115.945 Y98.547 E4.61695
G1 X117.041 Y99.206 E4.6765
G1 X117.423 Y99.467 E4.69804
G1 X118.174 Y100.028 E4.74169
G1 X118.874 Y100.652 E4.78536
G1 X119.807 Y101.677 E4.8499
G1 X120.227 Y102.202 E4.8812
G1 X120.781 Y102.959 E4.92488
G1 X121.268 Y103.76 E4.96853
G1 X121.692 Y104.613 E5.01289
G1 X121.826 Y104.915 E5.02827
G1 X122.169 Y105.787 E5.0719
G1 X122.429 Y106.653 E5.11401
G1 X122.487 Y106.88 E5.12492
G1 X122.743 Y108.233 E5.18904
G1 X122.773 Y108.472 E5.20025
G1 X122.858 Y109.709 E5.25799
G1 X122.86 Y109.874 E5.26567
G1 X122.832 Y110.811 E5.30932
G1 X122.723 Y111.743 E5.35302
G1 X122.621 Y112.292 E5.37902
G1 X122.542 Y112.664 E5.39672
G1 X122.485 Y112.918 E5.40885
G1 X122.406 Y113.251 E5.42478
G1 X122.151 Y114.154 E5.46847
G1 X121.82 Y115.031 E5.51212
G1 X121.356 Y115.986 E5.56156
G1 X121.238 Y116.202 E5.57302
G1 X120.754 Y117.005 E5.61668
G1 X120.399 Y117.51 E5.64543
G1 X120.228 Y117.739 E5.65873
G1 X119.635 Y118.465 E5.70238
G1 X119.177 Y118.95 E5.73344
G1 X118.916 Y119.21 E5.7506
G1 X118.224 Y119.843 E5.79427
G1 X117.481 Y120.415 E5.83793
G1 X116.691 Y120.921 E5.88162
G1 X116.101 Y121.241 E5.91287
G1 X115.553 Y121.517 E5.94144
G1 X114.602 Y121.941 E5.98992
G1 X114.402 Y122.019 E5.99992
G1 X113.514 Y122.322 E6.04361
G1 X112.604 Y122.549 E6.08728
G1 X111.577 Y122.708 E6.13567
G1 X111.185 Y122.75 E6.15403
G1 X110.249 Y122.81 E6.1977
G1 X109.298 Y122.79 E6.242
G1 X109.037 Y122.773 E6.25418
G1 X107.826 Y122.626 E6.31098
G1 X107.618 Y122.589 E6.32082
G1 X106.702 Y122.386 E6.3645
G1 X105.807 Y122.105 E6.40818
G1 X104.941 Y121.75 E6.45177
G1 X104.559 Y121.574 E6.47135
G1 X104.229 Y121.415 E6.48841
G1 X103.95 Y121.275 E6.50294
G1 X103.13 Y120.819 E6.54663
G1 X102.352 Y120.295 E6.59031
G1 X101.739 Y119.808 E6.62676
G1 X101.554 Y119.65 E6.63809
G1 X100.868 Y119.011 E6.68175
G1 X100.474 Y118.59 E6.7086
G1 X100.307 Y118.402 E6.72031
G1 X99.471 Y117.336 E6.78339
G1 X99.356 Y117.169 E6.79283
G1 X98.674 Y116.039 E6.85429
G1 X98.556 Y115.814 E6.86612
G1 X98.157 Y114.966 E6.90976
G1 X97.831 Y114.086 E6.95345
G1 X97.59 Y113.223 E6.99518
G1 X97.483 Y112.768 E7.01694
G1 X97.432 Y112.539 E7.02787
G1 X97.382 Y112.304 E7.03905
G1 X97.226 Y111.379 E7.08273
G1 X97.149 Y110.445 E7.12637
G1 X97.148 Y109.633 E7.16418
G1 X97.157 Y109.374 E7.17625
G1 X97.229 Y108.439 E7.21992
G1 X97.314 Y107.862 E7.24707
G1 X97.357 Y107.616 E7.2587
G1 X97.558 Y106.7 E7.30237
G1 X97.928 Y105.556 E7.35836
G1 X98.089 Y105.138 E7.37921
G1 X98.463 Y104.278 E7.42288
G1 X98.909 Y103.453 E7.46655
G1 X99.424 Y102.669 E7.51023
G1 X99.736 Y102.256 E7.53433
G1 X100.162 Y101.719 E7.56625
G1 X100.403 Y101.44 E7.58342
G0 F1350 X100.776 Y101.009
G0 F7500 X101.079 Y101.272
G1 F1500 X101.74 Y100.631 E7.62629
G1 X102.216 Y100.232 E7.65521
G1 X102.429 Y100.064 E7.66784
G1 X103.176 Y99.526 E7.71071
G1 X104.068 Y99 E7.75893
G1 X104.352 Y98.851 E7.77386
G1 X105.185 Y98.46 E7.81671
G1 X105.977 Y98.165 E7.85606
G1 X106.27 Y98.069 E7.87042
G1 X107.156 Y97.821 E7.91326
G1 X108.061 Y97.65 E7.95615
G1 X109.209 Y97.548 E8.00982
G1 X109.767 Y97.529 E8.03581
G1 X110.285 Y97.524 E8.05993
G1 X110.487 Y97.527 E8.06934
G1 X111.406 Y97.581 E8.11221
G1 X112.317 Y97.714 E8.15508
G1 X112.917 Y97.847 E8.18369
G1 X113.215 Y97.922 E8.198
G1 X114.097 Y98.185 E8.24086
G1 X114.735 Y98.429 E8.27267
G1 X114.942 Y98.516 E8.28312
G1 X115.775 Y98.909 E8.32601
G1 X116.815 Y99.536 E8.38256
G1 X117.197 Y99.797 E8.4041
G1 X117.934 Y100.349 E8.44698
G1 X118.62 Y100.962 E8.48981
G1 X119.494 Y101.927 E8.55044
G1 X119.914 Y102.452 E8.58174
G1 X120.458 Y103.195 E8.62462
G1 X120.934 Y103.983 E8.66749
G1 X121.326 Y104.775 E8.70864
G1 X121.46 Y105.077 E8.72402
G1 X121.797 Y105.934 E8.7669
G1 X122.041 Y106.752 E8.80665
G1 X122.099 Y106.979 E8.81756
G1 X122.346 Y108.283 E8.87936
G1 X122.376 Y108.522 E8.89058
G1 X122.458 Y109.714 E8.94621
G1 X122.46 Y109.879 E8.9539
G1 X122.431 Y110.799 E8.99676
G1 X122.323 Y111.713 E9.03961
G1 X122.23 Y112.209 E9.06311
G1 X122.151 Y112.581 E9.08082
G1 X122.096 Y112.826 E9.09251
G1 X122.017 Y113.159 E9.10845
G1 X121.766 Y114.045 E9.15133
G1 X121.438 Y114.905 E9.19419
G1 X121.005 Y115.794 E9.24023
G1 X120.887 Y116.01 E9.25169
G1 X120.411 Y116.798 E9.29456
G1 X120.078 Y117.27 E9.32146
G1 X119.907 Y117.499 E9.33476
G1 X119.325 Y118.212 E9.37762
G1 X118.895 Y118.667 E9.40677
G1 X118.634 Y118.927 E9.42393
G1 X117.954 Y119.548 E9.46681
G1 X117.223 Y120.107 E9.50966
G1 X116.446 Y120.601 E9.55253
G1 X115.921 Y120.884 E9.5803
G1 X115.373 Y121.16 E9.60887
G1 X114.456 Y121.569 E9.65563
G1 X114.256 Y121.647 E9.66562
G1 X113.385 Y121.943 E9.70846
G1 X112.491 Y122.164 E9.75134
G1 X111.534 Y122.311 E9.79643
G1 X111.142 Y122.353 E9.81478
G1 X110.223 Y122.411 E9.85766
G1 X109.324 Y122.391 E9.89953
G1 X109.063 Y122.374 E9.91171
G1 X107.896 Y122.232 E9.96645
G1 X107.688 Y122.195 E9.97629
G1 X106.789 Y121.995 E10.01917
G1 X105.911 Y121.717 E10.06206
G1 X105.108 Y121.386 E10.1025
G1 X104.726 Y121.21 E10.12209
G1 X104.408 Y121.057 E10.13852
G1 X104.129 Y120.917 E10.15305
G1 X103.325 Y120.469 E10.19591
G1 X102.563 Y119.953 E10.23876
G1 X101.999 Y119.503 E10.27236
G1 X101.814 Y119.345 E10.28369
G1 X101.141 Y118.718 E10.32652
G1 X100.773 Y118.325 E10.35159
G1 X100.606 Y118.137 E10.3633
G1 X99.801 Y117.109 E10.4241
G1 X99.686 Y116.942 E10.43354
G1 X99.029 Y115.853 E10.49276
G1 X98.911 Y115.628 E10.50459
G1 X98.519 Y114.795 E10.54746
G1 X98.201 Y113.931 E10.59033
G1 X97.979 Y113.132 E10.62894
G1 X97.872 Y112.677 E10.65071
G1 X97.823 Y112.456 E10.66125
G1 X97.773 Y112.221 E10.67243
G1 X97.621 Y111.313 E10.7153
G1 X97.548 Y110.395 E10.75818
G1 X97.547 Y109.647 E10.79301
G1 X97.556 Y109.388 E10.80508
G1 X97.628 Y108.47 E10.84796
G1 X97.708 Y107.931 E10.87333
G1 X97.751 Y107.685 E10.88496
G1 X97.949 Y106.786 E10.92782
G1 X98.301 Y105.7 E10.98098
G1 X98.462 Y105.282 E11.00184
G1 X98.83 Y104.438 E11.04471
G1 X99.27 Y103.629 E11.0876
G1 X100.05 Y102.504 E11.15134
G1 X100.476 Y101.967 E11.18326
G1 X100.706 Y101.702 E11.1996
G0 F1350 X101.079 Y101.272
G0 F7500 X101.381 Y101.534
G1 F1500 X102.031 Y100.907 E11.24165
G1 X102.463 Y100.546 E11.26786
G1 X102.676 Y100.378 E11.2805
G1 X103.409 Y99.851 E11.32253
G1 X104.254 Y99.355 E11.36816
G1 X104.538 Y99.206 E11.38309
G1 X105.356 Y98.822 E11.42517
G1 X106.101 Y98.545 E11.46218
G1 X106.394 Y98.449 E11.47654
G1 X107.264 Y98.206 E11.5186
G1 X108.152 Y98.041 E11.56066
G1 X109.223 Y97.948 E11.61071
G1 X109.781 Y97.929 E11.63671
G1 X110.279 Y97.924 E11.6599
G1 X110.481 Y97.927 E11.66931
G1 X111.383 Y97.98 E11.71138
G1 X112.276 Y98.113 E11.75342
G1 X112.819 Y98.234 E11.77933
G1 X113.117 Y98.309 E11.79364
G1 X113.983 Y98.568 E11.83572
G1 X114.58 Y98.798 E11.86552
G1 X114.787 Y98.885 E11.87597
G1 X115.603 Y99.271 E11.918
G1 X116.589 Y99.866 E11.97163
G1 X116.971 Y100.127 E11.99317
G1 X117.694 Y100.669 E12.03525
G1 X118.365 Y101.273 E12.07728
G1 X119.182 Y102.177 E12.13402
G1 X119.602 Y102.702 E12.16533
G1 X120.134 Y103.432 E12.20739
G1 X120.6 Y104.205 E12.24942
G1 X120.96 Y104.937 E12.2874
G1 X121.094 Y105.239 E12.30279
G1 X121.424 Y106.08 E12.34485
G1 X121.654 Y106.851 E12.38232
G1 X121.712 Y107.078 E12.39323
G1 X121.95 Y108.333 E12.45271
G1 X121.98 Y108.572 E12.46392
G1 X122.058 Y109.718 E12.51741
G1 X122.06 Y109.883 E12.52509
G1 X122.031 Y110.786 E12.56716
G1 X121.838 Y112.126 E12.6302
G1 X121.759 Y112.498 E12.64791
G1 X121.707 Y112.733 E12.65912
G1 X121.628 Y113.066 E12.67505
G1 X121.38 Y113.935 E12.71713
G1 X121.057 Y114.778 E12.75917
G1 X120.654 Y115.602 E12.80188
G1 X120.536 Y115.818 E12.81334
G1 X120.069 Y116.591 E12.8554
G1 X119.758 Y117.031 E12.88049
G1 X119.587 Y117.26 E12.89379
G1 X119.015 Y117.959 E12.93585
G1 X118.613 Y118.383 E12.96306
G1 X118.352 Y118.643 E12.98021
G1 X117.684 Y119.252 E13.0223
G1 X116.966 Y119.799 E13.06433
G1 X116.201 Y120.28 E13.10641
G1 X115.741 Y120.527 E13.13072
G1 X115.193 Y120.803 E13.15929
G1 X114.311 Y121.196 E13.20426
G1 X114.111 Y121.274 E13.21425
G1 X113.256 Y121.564 E13.25629
G1 X112.379 Y121.778 E13.29833
G1 X111.492 Y121.913 E13.34011
G1 X111.1 Y121.955 E13.35846
G1 X110.198 Y122.011 E13.40054
G1 X109.35 Y121.991 E13.44004
G1 X109.089 Y121.974 E13.45222
G1 X107.966 Y121.838 E13.50489
G1 X107.758 Y121.801 E13.51473
G1 X106.876 Y121.604 E13.55681
G1 X106.016 Y121.329 E13.59886
G1 X105.276 Y121.023 E13.63614
G1 X104.894 Y120.847 E13.65573
G1 X104.587 Y120.7 E13.67158
G1 X104.308 Y120.56 E13.68611
G1 X103.52 Y120.119 E13.72816
G1 X102.773 Y119.611 E13.77023
G1 X102.259 Y119.199 E13.8009
G1 X102.074 Y119.041 E13.81223
G1 X101.414 Y118.425 E13.85427
G1 X101.072 Y118.059 E13.87759
G1 X100.905 Y117.871 E13.8893
G1 X100.13 Y116.882 E13.94781
G1 X100.015 Y116.715 E13.95725
G1 X99.383 Y115.667 E14.01423
G1 X99.265 Y115.442 E14.02607
G1 X98.881 Y114.625 E14.0681
G1 X98.571 Y113.776 E14.11019
G1 X98.369 Y113.04 E14.14573
G1 X98.262 Y112.585 E14.16749
G1 X98.214 Y112.373 E14.17761
G1 X98.164 Y112.138 E14.1888
G1 X98.016 Y111.247 E14.23086
G1 X97.946 Y110.346 E14.27294
G1 X97.947 Y109.661 E14.30483
G1 X97.956 Y109.402 E14.3169
G1 X98.027 Y108.501 E14.35899
G1 X98.102 Y108 E14.38257
G1 X98.145 Y107.754 E14.3942
G1 X98.34 Y106.872 E14.43626
G1 X98.675 Y105.844 E14.48661
G1 X98.836 Y105.426 E14.50747
G1 X99.197 Y104.598 E14.54953
G1 X99.631 Y103.806 E14.59158
G1 X100.363 Y102.753 E14.6513
G1 X100.789 Y102.216 E14.68321
G1 X101.008 Y101.964 E14.69876
G0 F1350 X101.381 Y101.534
G1 F1500 E8.69876
;MESH:Makers Coin.stl
G0 F7500 X108.333 Y109.925
;TYPE:WALL-OUTER
G1 F1500 E14.69876
G1 X108.339 Y109.779 E14.70522
G1 X108.377 Y109.558 E14.71514
G1 X108.449 Y109.334 E14.72555
G1 X108.482 Y109.26 E14.72913
G1 X108.616 Y109.22 E14.73532
G1 X108.848 Y108.918 E14.75217
G1 X108.977 Y108.784 E14.7604
G1 X108.986 Y108.629 E14.76726
G1 X109.1 Y108.545 E14.77353
G1 X109.353 Y108.412 E14.78617
G1 X109.596 Y108.333 E14.79747
G1 X109.712 Y108.412 E14.80368
G1 X110.091 Y108.405 E14.82045
G1 X110.279 Y108.423 E14.82881
G1 X110.403 Y108.334 E14.83556
G1 X110.545 Y108.372 E14.84206
G1 X110.748 Y108.457 E14.8518
G1 X110.95 Y108.576 E14.86217
G1 X111.014 Y108.626 E14.86576
G1 X111.024 Y108.769 E14.8721
G1 X111.237 Y109.017 E14.88656
G1 X111.378 Y109.21 E14.89713
G1 X111.52 Y109.257 E14.90375
G1 X111.593 Y109.442 E14.91255
G1 X111.647 Y109.661 E14.92253
G1 X111.672 Y109.918 E14.93395
G1 X111.568 Y110.014 E14.94021
G1 X111.489 Y110.389 E14.95716
